X: 31948
T: Pearl O'Shaughnessy's
R: barndance
M: 4/4
K: Gmajor
|:Bc|d2 d2 dBed|B2 B2 BAGB|d2 c2 cAFA|e2 d2 dBGB|
d2 d2 dBed|B2 B2 BAGB|d2 c2 cAFA|1 GDBD G2 Bc:|2 GDBD G2 dc||
|:B2 G2 GBdB|c2 A2 A2 cB|A2 F2 F2 DF|GFGB e2 dc|
B2 G2 GBdB|c2 A2 A2 cB|AGFE DEFD|1 G2 B2 G2 dc:|2 G2 B2 G2 Bc||
|:dBed B2 g2|fege c2 eg|(3fgf ed (3fgf ed|(3BcB AG B2 Bc|
dBed B2 g2|fege c2 eg|(3fgf ed ^cdef|g2 b2 g2 Bc:|
d2 b2 b2 c'b|a2 e2 e2 ag|(3fgf ed (3fgf ed|(3BcB AG B2 Bc|
d2 b2 b2 c'b|a2 e2 e2 ag|(3fgf ed ^cdef|g2 b2 g2 Bc:|

